X:1
T:To Christ the Monarch
T:To Christ the Monarch
T:John Wainwright, 1750
T:William Dix, 1871, arr. Richard W. Adams, 2019
T:Public Domain Courtesy of the Cyber Hymnal™
T:Public Domain Courtesy of the Cyber Hymnal™
C:John Wainwright, 1750
Z:Public Domain
Z:Courtesy of the Cyber Hymnal™
%%score ( 1 2 ) ( 3 4 )
L:1/8
Q:1/4=160
M:4/4
K:C
V:1 treble 
V:2 treble 
V:3 bass 
V:4 bass 
V:1
 [G,C]4 [A,C]2 [B,D]2 | [CE]6 [CF]2 | [CG]2 [CE]2 [CF]2 [CG]2 | [CA]8 | [CG]4 [CA]2 [FB]2 | %5
w: 1.~To Christ the|Mon- arch,|be our praise to-|day,|Un- to the|
w: 2.~The en- e-|my said,|“I will o- ver-|take,”|But horse and|
w: 3.~The en- e-|my said,|“I will cast them|down|To li- ons’|
w: 4.~The en- e-|my said,|“I will bind in|chains|Th’im- pris- oned|
w: 5.~Glo- ry, thanks-|giv- ing,|prais- es to the|King|May all His|
 [Gc]2 [Gd]2 [Ge]2 [Fd]2 | [Ec]4 [DB]4 | [Ec]8 | [Ec]4 [Ge]2 G2 | [FA]6 G2 | %10
w: Lord who set His|pe- ople|free;|His tribes have|passed on|
w: ri- der sank down|like a|stone|In surg- ing|tide, when|
w: den, in- to the|sev’n- fold|flame”;|But ang- els|saved them|
w: souls that lie in|death’s do-|main”;|But Christ the|Lord led|
w: ser- vants bring ’til|hea- vens|ring;|See, through the|grave and|
 [FA]2 [FB]2 [Gc]2 [Fd]2 | [DB]8 | [EB]4 [Ec]2 [^GB]2 | A2 [E^G]2 [CA]2 [FB]2 | [Ec]4 [EB]4 | %15
w: dry ground through the|flood,|Their foes cast|down to dark- est|depth of|
w: part- ed wa- tery|walls|By God on|high were all to-|ge- ther|
w: from the li- ons’|mouths,|And cool- ing|wind in- to the|fur- nace|
w: them in- to the|light,|And Ha- des’|pris- o- ners were|free a-|
w: gate of death He|passed,|From bonds of|sin His pre- cious|own to|
 [CA]8 | [FA]4 [DG]2 [DF]2 | [CE]4 C4 | [CF]2 [CE]2 [CD]2 C2 | [B,G]6 [CG]2 | [CA]4 [FB]4 | %21
w: sea;|With His right|hand, and|glor- ious ho- ly|arm The|King gains|
w: thrown.|With His right|hand, and|glor- ious might- y|power The|King gains|
w: came.|With His right|hand, that|rules o’er beast and|fire, The|King gains|
w: gain;|With His right|hand, and|power o’er life and|death, The|King gains|
w: free;|With His right|hand, and|glor- ious ho- ly|arm The|King gains|
 [Gc]2 [Gd]2 [Ge]2 [Fd]2 | [Ec]4 [DB]4 | [Ec]8 |] %24
w: for Him- self the|vic- to-|ry.|
w: for Him- self the|vic- to-|ry.|
w: for Him- self the|vic- to-|ry.|
w: for Him- self the|vic- to-|ry.|
w: for Him- self the|vic- to-|ry.|
V:2
 x8 | x8 | x8 | x8 | x8 | x8 | x8 | x8 | x6 G2 | x6 G2 | x8 | x8 | x8 | A2 x6 | x8 | x8 | x8 | %17
 x4 C4 | x6 C2 | x8 | x8 | x8 | x8 | x8 |] %24
V:3
 [C,E,]4 [A,,E,]2 [G,,G,]2 | [C,G,]6 [D,G,]2 | [E,G,]2 [C,G,]2 [D,G,]2 [E,G,]2 | F,8 | %4
 [E,G,]4 F,2 [D,G,]2 | [E,G,]2 [G,B,]2 [C,C]2 [F,A,]2 | G,4 [G,,G,]4 | [C,G,]8 | %8
 [C,G,]4 [C,C]2 [E,C]2 | [F,C]6 [E,C]2 | [F,C]2 [D,D]2 [E,C]2 [F,A,]2 | G,8 | %12
 [E,^G,]4 [A,,A,]2 [B,,D]2 | [C,E]2 [E,B,]2 [F,A,]2 [D,A,]2 | [E,A,]4 (A,2 ^G,2) | [A,,A,]8 | %16
 [F,,C]4 [G,,B,]2 [B,,G,]2 | [C,G,]4 [C,E,]4 | [A,,F,]2 [G,,G,]2 [F,,A,]2 [^F,,D,]2 | %19
 [G,,D,]6 [C,E,]2 | F,4 [D,G,]4 | [E,C]2 [G,B,]2 [C,C]2 [F,A,]2 | G,4 [G,,G,]4 | [C,G,]8 |] %24
V:4
 x8 | x8 | x8 | F,8 | x8 | x8 | G,4 x4 | x8 | x8 | x8 | x8 | G,8 | x8 | x8 | x4 E,4 | x8 | x8 | %17
 x8 | x8 | x8 | F,4 x4 | x8 | G,4 x4 | x8 |] %24

